X:1
T:Title
%%score ( 1 2 ) { 3 | 4 }
L:1/8
Q:1/4=107
M:4/4
K:F
V:1 treble nm="Grand Piano, Soprano"
V:2 treble 
V:3 bass nm="Choir Pad, Brantford, Benjamin Unseld"
V:4 bass 
V:1
 [FA]2 [EG]2 F3 [CG] | FEDE [CF]2 C2 | [A,F]2 [CA]2 D2 [FB]2 | [FA]2 [FG]2 [EG]4 | %4
w: By~Benjamin~Carl~Unseld,~1894 * * *||||
 [FA]2 [EG]2 F3 [CG] | FEDE [CF]2 C2 | [CF]2 [CA]2 D2 [FB]2 | [FA]2 [EG]2 F4 | %8
w: ||||
 [FA]2 [Fc]2 [Fc]3 [FA] | [Fd][_Ec][DB][Ec] [Fd]2 [FB]2 | [FA]2 [Fc]2 [Fc]3 [FA] | %11
w: |||
 [FG]2 [Fd]2 [Ec]4 | [FA]2 [EG]2 F3 [CG] | FEDE [CF]2 C2 | [CF]2 [_EA]2 [Dd]3 [FB] | %15
w: ||||
 [FA]2 [EG]2 F4- | F4 z4 |] %17
w: ||
V:2
 x8 | C2 C2 z4 | x8 | x8 | x8 | C2 C2 z4 | x8 | x8 | x8 | x8 | x8 | x8 | x8 | C2 C2 z4 | x8 | x8 | %16
 x8 |] %17
V:3
 C2 B,2 A,2 C2 | G,2 B,2 A,2 G,2 | F,2 F,2 B,2 B,2 | C2 =B,2 C4 | C2 B,2[K:bass] A,2 C2 | %5
 G,2 B,2 A,2 B,2 | C2 C2 B,2 B,2 | C2[K:bass] B,2 A,4 | C2 A,2 A,3 C | B,2 B,2 B,2 B,2 | %10
 C2 A,2 A,3 C | =B,2 B,2[K:treble] C4 | C2 B,2 A,2 C2 | G,2 B,2 A,2 B,2 | C2 C2 B,3 B, | %15
 C2 B,2 A,4- | A,4 z4 |] %17
V:4
 F,2 C,2 F,2 A,,2 | C,2 C,2 F,2 E,2 | D,2 C,2 B,,2 D,2 | F,2 G,2 C,4 | F,2 C,2 F,2 A,,2 | %5
 C,2 C,2 F,2 G,2 | A,2 F,2 B,,2 D,2 | C,2 C,2 F,4 | F,2 F,2 F,3 F, | B,,2 B,,2 B,,2 D,2 | %10
 F,2 F,2 F,3 F, | G,2 G,2 C,4 | F,2 C,2 F,2 A,,2 | C,2 C,2 F,2 G,2 | A,2 F,2 B,,3 D, | %15
 C,2 C,2 F,4- | F,4 z4 |] %17

